X:26
T:score12
L:1/8
Q:1/4=96
M:1/4
I:linebreak $
K:Amin
 (E2 |[M:3/4] .A.^G .A.B .c.d | (ea .e2) Td2 | (ca .c2) TB2 |$ A6) | (Ac .A2 TG2 | ^Fc F4) | %7
 (Fc .F2 TE2 |[M:2/4] ^DB D4) |] %9
